X:1
T:Love With the Proper Stranger
T:Love With the Proper Stranger
T:Elmer Bernstein
T:Johnny Mercer
C:Elmer Bernstein
Z:All Rights Reserved
L:1/4
M:4/4
K:Bb
V:1 treble 
%%MIDI program 0
V:1
"Bb" C D D3/2 D/ | D E/D/"Gm7" C B, |"Cm7" F2 G2- |"F13" G3 z |"Cm7" F G G3/2 G/ | G F/E/ D C | %6
w: I could fall in|love with the pro- per|strang- er,||if I heard the|bells and the ban- joes|
"F9" A4- |"A" A3"F7" z |"Gm" A B B B | B A/G/ F G |"Dm" A2 D2- |"Bb7" D z"Fm7" E"Bb7" F | %12
w: ring.||If two cer- tain|eyes with a look of|dan- ger|* smiled a|
"Eb" G2 B,2- | B,2"Cm7b5" F E | C4- |"F7" C z D E |"Bb" F B, B, B, |"Cm9""F13" D4 | %18
w: wel- come|* warm as|spring.|* If the|tom- tom in my|heart|
"Bb" z D/E/ F B, |"Am7" G"D7" A2 D |"Gm" (3B c A (3B c A |"Gb" B3/2 c/ c2 |"Bb" (3B c A (3B c A | %23
w: sound- ed out a|warn- ing, "Don't|let her, don't let her walk|through the door,|this is the one you've been|
"Gm6" B3/2 c/ c B |"Cm9" d3"F7b9" c |"Bb""G7" F4 |"Cm9" z d"F9" d c |"Bbsus4" e"Bb" d F"Dm" A | %28
w: wait- ing for." Oh|yes, I'd|know,|how- ev- er|wild it seemed. You|
"Gm" c3 B | D4 | z c2 B |"Cm7b5" D2"F7" E2 |"Bb" z C/D/ D D |"Dm" D E/D/ C B, |"Ab" z D D D | %35
w: know I'd|know,|and I'd|whis- per:|"Come and take my|hand, pro- per stran- ger.|Don't go through|
"Gm" D E/D/"Gb" C B, |"Bb" z D"Gm" D D |"Cm9" D E/D/"F7b9" B, C |"Bb" B,4- | B,4 | z4 |] %41
w: life as a stran- ger|for I'm a|poor pro- per stran- ger|too."|||

